X: 24932
T: Maid Behind The Bar, The
R: reel
M: 4/4
K: Dmajor
FG|A2 AB AFEF|DF F2ABde|fd d2 edBd|e2 (3fed edBA|
FAAB AFEF|DFF2 ABde|fd d2 BcdB|AFEF D2:|
|:ag|fa^ga fd d2|fdad fd d2|Be e2 Beef|gfef gbag|
fd d2 AdFd|BG G2 DGB,G|ABcd efga|fd (3edc d2:|

